packages/icons/src/clips-together.svg

<svg width="24" height="24" viewBox="0 0 24 24" fill="none" xmlns="http://www.w3.org/2000/svg">
<path fill-rule="evenodd" clip-rule="evenodd" d="M14.8282 9.87848L13.4139 11.2927C12.2842 10.163 10.4776 10.1226 9.29955 11.1716L9.17131 11.2927L5.28222 15.1818C4.30591 16.1581 4.30591 17.741 5.28222 18.7173C6.21948 19.6546 7.71578 19.6921 8.69776 18.8298L8.81775 18.7173L10.5855 16.9495L11.9997 18.3638L10.232 20.1315C8.47461 21.8889 5.62537 21.8889 3.86801 20.1315C2.16086 18.4244 2.11208 15.6868 3.72168 13.9208L3.86801 13.7676L7.75709 9.87848C9.65833 7.97724 12.7098 7.92721 14.6715 9.72838L14.8282 9.87848ZM20.1315 3.86807C21.8386 5.57522 21.8874 8.31275 20.2778 10.0788L20.1315 10.232L16.2424 14.1211C14.3411 16.0224 11.2897 16.0724 9.32794 14.2712L9.17131 14.1211L10.5855 12.7069C11.7153 13.8366 13.5218 13.877 14.6999 12.8279L14.8282 12.7069L18.7172 8.81782C19.6936 7.84151 19.6936 6.25859 18.7172 5.28228C17.78 4.34502 16.2837 4.30753 15.3017 5.16981L15.1817 5.28228L13.4139 7.05005L11.9997 5.63584L13.7675 3.86807C15.5249 2.11071 18.3741 2.11071 20.1315 3.86807Z" fill="black"/>
</svg>

<svg xmlns="http://www.w3.org/2000/svg" width="24" height="24" fill="none" viewBox="0 0 24 24">
  <path fill="#000" fill-rule="evenodd" d="m14.828 9.878-1.414 1.415a3 3 0 0 0-4.114-.121l-.129.12-3.889 3.89a2.5 2.5 0 0 0 3.416 3.648l.12-.113 1.768-1.767L12 18.364l-1.768 1.767a4.5 4.5 0 0 1-6.51-6.21l.146-.153 3.89-3.89a5 5 0 0 1 6.913-.15l.157.15Zm5.303-6.01a4.5 4.5 0 0 1 .147 6.21l-.146.154-3.89 3.89a5 5 0 0 1-6.914.15l-.157-.15 1.415-1.415a3 3 0 0 0 4.114.12l.128-.12 3.89-3.89a2.5 2.5 0 0 0-3.416-3.647l-.12.112-1.768 1.768L12 5.636l1.768-1.768a4.5 4.5 0 0 1 6.363 0Z" clip-rule="evenodd"/>
</svg>
